X:17
T:ddau farch, y [The two Horses/Steeds]
Z:ceri rhys matthews
M:2/4
L:1/8
Q:1/2=40
K:G
D2|GGGG|GBAA/B/|A/G/F/G/A/G/A/B/|A2-A A|BABc|d4|B2z B|
cBcB|cdGG/F/|EDED|E2E-F|G2zG|
A A/B/A/G/F/G/|A/G/A/B/AA/A/|BAGF|E2E-F|G
